X: 145
T: Wild Colonial Boy
M:4/4
R:song
Q:1/2=120
L:1/4
Z:added by Alf warnock alf0@rogers.com - www.alfwarnock.info/alfs
K:G
d2|"G"G3B|d3d|"Am"e2c2|A3G|"D7"F2D2|B2A2|"G"G4-|G2Bc|
d3d|g3d|"Am"f2e2|A2AB|"D7"c2d2|f2e2|"G"d4-|d2Bc|
d3d|g2d2|"Am"f2e2|A2AB|"D7"c2d2|f2e2|"G"d4-|d2dB|
G3B|d2d2|"Am"e2c2|A3G|"D7"F2D2|B2A2|"G"G4|G4|]

